X:6
T:Lady Saltouns Strathspey. Pn1801.06
M:C
L:1/8
Q:1/4=120
C:"4""p185"
W:Turn your Partner half round with your right hand, turn the sides with the left hand .|
W:turn sides with the right hand,
W:turn Partner with your left hand :| lead down, 2nd Cu: up again :|. Allemand :||:
B:Preston 24 for 1801
Z:Village Music Project, John Adams, 2017
K:F
cdfg {a}gf/e/f2|{d}cdfa gG Bd|cdfg {a}gf/e/ f>d|cAfd cFAd:|
cAfA aAcA|cAfA cGAd|cAfA  afge| fcdf cF Af|
cAfA aAcA|cfef gG Bd|cAaf gefd|cf e/f/g/e/ fFAf|]
